X:129
T:Lasses - Woodrich
%%VWML:SBG-1-2-679-0
F:http://www.vwml.org/record/SBG/1/2/679
Z:Original Sibelius transcriptions by M. & S. Graebe
M:6/8
I:linebreak $
K:G
V:1 treble nm="P1"
V:1
 G | G2 G E2 E | FG F G2 F | G2 c B2 G | AG F G2 G | A2 e d2 B | G2 A B2 B |$ B2 A d2 B | AG F E3 | %9
"^chorus" A2 A A2 D | c2 c B2 A | Bcd cB^G | A3 A2 x | %13

